!!!!SEGMENT: pl-wtm--r-2042_smietanski-emil-wladyslaw--etude-de-concert.krn
!!!cenid: 18xx:2027
!!!COM: Śmietański, Emil Władysław
!!!COM-rismid: pe50041781
!!!CDT: 1845-1886
!!!CNT: Polish
!!!OTL: Etude de concert
!!!PDT: 1873
!!!AGN: Secular; Etude
!!!SMS-siglum: PL-Wtm
!!!SMS-shelfmark: R 2042
!!!SMS-shelfwork: W
!!!SMS-variant:
!!!SMS-altvar:
!!!NIFC-rismid: 1001111546
!!!OMD: Tempo giusto.
!!!system-decoration: {(s1,s2)}
!!!key:
**kern	**kern	**dynam
*part1	*part1	*part1
*staff2	*staff1	*
*Iempty	*Iforte	*
*	*I"Fortepian	*
*clefG2	*clefG2	*
*k[]	*k[]	*
*C:	*C:	*
*M6/8	*M6/8	*
=1	=1	=1
*Xtuplet	*Xtuplet	*
!!LO:TX:t=P:problem:all\left, middle or right:global
!!LO:TX:a:t=P:w źródle partie obydwu rąk zapisane na jednej pięciolinii:problem
!	!LO:TX:b:i:t=md.	!
!	!	!LO:DY:a:rj
8ryy	24gLL 24e 24c/	p
.	24g 24e 24c/	.
.	24gJJ 24e 24c/	.
!LO:TX:a:i:t=ms	!	!
24ccLL 24g 24e\	8ryy	.
24cc 24g 24e\	.	.
24ccJJ 24g 24e\	.	.
!	!LO:TX:b:i:t=md	!
8ryy	24gLL 24e 24c/	.
.	24g 24e 24c/	.
.	24gJJ 24e 24c/	.
24bLL 24f 24d\	8ryy	.
24b 24f 24d\	.	.
24bJJ 24f 24d\	.	.
8ryy	24aLL 24f 24c/	.
.	24a 24f 24c/	.
.	24aJJ 24f 24c/	.
24gLL 24f 24B\	8ryy	.
24g 24f 24B\	.	.
24gJJ 24f 24B\	.	.
*tuplet	*tuplet	*
=2	=2	=2
*tremolo	*tremolo	*
!	!LO:TUP:b:problem=klamra łukowa	!
8ryy	24gLL 24e 24c/	<
.	24g 24e 24c/	.
.	24gJJ 24e 24c/	.
!LO:TUP:a:problem=klamra łukowa	!	!
24ccLL 24g 24e\	8ryy	.
24cc 24g 24e\	.	.
24ccJJ 24g 24e\	.	.
!	!LO:TUP:b:problem=klamra łukowa	!
8ryy	24eeLL 24cc 24g/	.
.	24ee 24cc 24g/	.
.	24eeJJ 24cc 24g/	.
*Xtuplet	*Xtuplet	*
24ggLL 24cc 24b\	8ryy	[ >
24gg 24cc 24b\	.	.
24ggJJ 24cc 24b\	.	.
8ryy	24ffLL 24cc 24a/	.
.	24ff 24cc 24a/	.
.	24ffJJ 24cc 24a/	.
24eeLL 24cc 24g\	8ryy	.
24ee 24cc 24g\	.	.
24eeJJ 24cc 24g\	.	]
=3	=3	=3
8ryy	24ddLL 24cc 24f#X/	.
.	24dd 24cc 24f#/	.
.	24ddJJ 24cc 24f#/	.
24ee-XLL 24cc 24g\	8ryy	.
24ee- 24cc 24g\	.	.
24ee-JJ 24cc 24g\	.	.
8ryy	24ddLL 24cc 24f#/	.
.	24dd 24cc 24f#/	.
.	24ddJJ 24cc 24f#/	.
!!LO:LB:g=original
24aaLL 24ee-X 24cc\	8ryy	>
24aa 24ee- 24cc\	.	.
24aaJJ 24ee- 24cc\	.	.
8ryy	24ee-XLL 24cc 24g/	.
.	24ee- 24cc 24g/	.
.	24ee-JJ 24cc 24g/	.
24ddLL 24cc 24f#X\	8ryy	.
24dd 24cc 24f#\	.	.
24ddJJ 24cc 24f#\	.	]
=4	=4	=4
8ryy	24ddLL 24b 24fn/	.
.	24dd 24b 24f/	.
.	24ddJJ 24b 24f/	.
24eeLL 24b 24g\	8ryy	.
24ee 24b 24g\	.	.
24eeJJ 24b 24g\	.	.
8ryy	24ddLL 24b 24f/	.
.	24dd 24b 24f/	.
.	24ddJJ 24b 24f/	.
24ffLL 24b 24a\	8ryy	>
24ff 24b 24a\	.	.
24ffJJ 24b 24a\	.	.
8ryy	24eeLL 24b 24g/	.
.	24ee 24b 24g/	.
.	24eeJJ 24b 24g/	.
24ddLL 24b 24f\	8ryy	.
24dd 24b 24f\	.	.
24ddJJ 24b 24f\	.	]
=5	=5	=5
8ryy	24gLL 24e 24c/	.
.	24g 24e 24c/	.
.	24gJJ 24e 24c/	.
24ccLL 24g 24e\	8ryy	.
24cc 24g 24e\	.	.
24ccJJ 24g 24e\	.	.
8ryy	24gLL 24e 24c/	.
.	24g 24e 24c/	.
.	24gJJ 24e 24c/	.
24bLL 24f 24d\	8ryy	.
24b 24f 24d\	.	.
24bJJ 24f 24d\	.	.
8ryy	24aLL 24f 24c/	.
.	24a 24f 24c/	.
.	24aJJ 24f 24c/	.
24gLL 24f 24B\	8ryy	.
24g 24f 24B\	.	.
24gJJ 24f 24B\	.	.
=6	=6	=6
8ryy	24gLL 24e 24c/	<
.	24g 24e 24c/	.
.	24gJJ 24e 24c/	.
24ccLL 24g 24e\	8ryy	.
24cc 24g 24e\	.	.
24ccJJ 24g 24e\	.	.
8ryy	24eeLL 24cc 24g/	.
.	24ee 24cc 24g/	.
.	24eeJJ 24cc 24g/	.
24ggLL 24cc#X 24b-X\	8ryy	[ >
24gg 24cc# 24b-\	.	.
24ggJJ 24cc# 24b-\	.	.
8ryy	24ff#XLL 24dd 24a/	.
.	24ff# 24dd 24a/	.
.	24ff#JJ 24dd 24a/	.
!LO:TX:t=P:problem=w źródle dwa ♮ przy 24ff	!	!
24ffnLL 24bn 24a-X\	8ryy	.
24ff 24b 24a-\	.	.
24ffJJ 24b 24a-\	.	]]
!!LO:LB:g=original
=7	=7	=7
8ryy	24eeLL 24cc 24g/	.
.	24ee 24cc 24g/	.
.	24eeJJ 24cc 24g/	.
24dd#XLL 24a 24f#X\	8ryy	.
24dd# 24a 24f#\	.	.
24dd#JJ 24a 24f#\	.	.
8ryy	24eeLL 24cc 24g/	.
.	24ee 24cc 24g/	.
.	24eeJJ 24cc 24g/	.
24ffnLL 24b 24a\	8ryy	.
24ff 24b 24a\	.	.
24ffJJ 24b 24a\	.	.
8ryy	24aLL 24f#X 24c#X/	.
.	24a 24f# 24c#/	.
.	24aJJ 24f# 24c#/	.
24bLL 24f# 24d\	8ryy	.
24b 24f# 24d\	.	.
24bJJ 24f# 24d\	.	.
=8	=8	=8
8ryy	24gLL 24e 24c/	.
.	24g 24e 24c/	.
.	24gJJ 24e 24c/	.
24ccLL 24g 24e\	8ryy	.
24cc 24g 24e\	.	.
24ccJJ 24g 24e\	.	.
8ryy	24f#XLL 24d#X 24c/	.
.	24f# 24d# 24c/	.
.	24f#JJ 24d# 24c/	.
24gLL 24e 24c\	8ryy	.
24g 24e 24c\	.	.
24gJJ 24e 24c\	.	.
8ryy	24a-XLL 24fn 24c/	.
.	24a- 24f 24c/	.
.	24a-JJ 24f 24c/	.
24gLL 24e 24c\	8ryy	.
24g 24e 24c\	.	.
24gJJ 24e 24c\	.	.
=9||	=9||	=9||
8ryy	24gLL 24f 24B/	.
.	24g 24f 24B/	.
.	24gJJ 24f 24B/	.
24ddLL 24g 24f\	8ryy	.
24dd 24g 24f\	.	.
24ddJJ 24g 24f\	.	.
8ryy	24bLL 24f 24d/	.
.	24b 24f 24d/	.
.	24bJJ 24f 24d/	.
24aLL 24f 24c\	8ryy	.
24a 24f 24c\	.	.
24aJJ 24f 24c\	.	.
8ryy	24a-XLL 24f 24c/	.
.	24a- 24f 24c/	.
.	24a-JJ 24f 24c/	.
24gLL 24f 24B\	8ryy	.
24g 24f 24B\	.	.
24gJJ 24f 24B\	.	.
=10	=10	=10
!	!	!LO:HP:a
8ryy	24gLL 24e 24A#X/	<
.	24g 24e 24A#/	.
.	24gJJ 24e 24A#/	.
24gLL 24f 24B\	8ryy	.
24g 24f 24B\	.	.
24gJJ 24f 24B\	.	.
8ryy	24gLL 24f 24c/	.
.	24g 24f 24c/	.
.	24gJJ 24f 24c/	[[
!!LO:LB:g=original
24gLL 24f 24c#X\	8ryy	.
24g 24f 24c#\	.	.
24gJJ 24f 24c#\	.	.
8ryy	24aLL 24f 24c#X/	.
.	24a 24f 24c#/	.
.	24aJJ 24f 24c#/	.
24gLL 24f 24d\	8ryy	.
24g 24f 24d\	.	.
24gJJ 24f 24d\	.	.
=11	=11	=11
8ryy	24gLL 24e 24c/	.
.	24g 24e 24c/	.
.	24gJJ 24e 24c/	.
24eeLL 24cc 24g\	8ryy	.
24ee 24cc 24g\	.	.
24eeJJ 24cc 24g\	.	.
8ryy	24ccLL 24g 24e/	.
.	24cc 24g 24e/	.
.	24ccJJ 24g 24e/	.
24aLL 24e 24c\	8ryy	.
24a 24e 24c\	.	.
24aJJ 24e 24c\	.	.
8ryy	24a-XLL 24e-X 24c/	.
.	24a- 24e- 24c/	.
.	24a-JJ 24e- 24c/	.
24gLL 24en 24c\	8ryy	.
24g 24e 24c\	.	.
24gJJ 24e 24c\	.	.
=12	=12	=12
!	!	!LO:HP:a
8ryy	24gLL 24d#X 24B/	<
.	24g 24d# 24B/	.
.	24gJJ 24d# 24B/	.
24gLL 24e 24c\	8ryy	.
24g 24e 24c\	.	.
24gJJ 24e 24c\	.	.
8ryy	24gLL 24f 24d#/	.
.	24g 24f 24d#/	.
.	24gJJ 24f 24d#/	.
!LO:TX:t=P:problem=dopisane ołówkiem "g"	!	!
24gLL 24f#X 24d#X\	8ryy	.
24g 24f# 24d#\	.	.
24gJJ 24f# 24d#\	.	.
8ryy	24gLL 24g 24e/	.
.	24g 24g 24e/	.
.	24gJJ 24g 24e/	.
24aLL 24g 24e\	8ryy	[[
24a 24g 24e\	.	.
24aJJ 24g 24e\	.	.
=13	=13	=13
8ryy	24bLL 24g 24d/	.
.	24b 24g 24d/	.
.	24bJJ 24g 24d/	.
24ddLL 24b 24g\	8ryy	<
24dd 24b 24g\	.	.
24ddJJ 24b 24g\	.	.
8ryy	24ggLL 24dd 24b/	.
.	24gg 24dd 24b/	.
.	24ggJJ 24dd 24b/	.
24bbLL 24gg 24dd\	8ryy	.
24bb 24gg 24dd\	.	.
24bbJJ 24gg 24dd\	.	.
8ryy	24bb-XLL 24ee 24cc#X/	.
.	24bb- 24ee 24cc#/	.
.	24bb-JJ 24ee 24cc#/	.
24aaLL 24ff 24ccn\	8ryy	.
24aa 24ff 24cc\	.	.
24aaJJ 24ff 24cc\	.	.
!!LO:LB:g=original
=14	=14	=14
8ryy	24gg#XLL 24dd 24b/	.
.	24gg# 24dd 24b/	.
.	24gg#JJ 24dd 24b/	.
24ggnLL 24ee-X 24b-X\	8ryy	.
24gg 24ee- 24b-\	.	.
24ggJJ 24ee- 24b-\	.	.
8ryy	24eeLL 24b 24g/	.
.	24ee 24b 24g/	.
.	24eeJJ 24b 24g/	.
!	!	!LO:HP:a
24ddLL 24a 24f#X\	8ryy	>
24dd 24a 24f#\	.	.
24ddJJ 24a 24f#\	.	.
8ryy	24ccLL 24g 24e/	.
.	24cc 24g 24e/	.
.	24ccJJ 24g 24e/	.
!LO:TX:t=P:problem=w źródle akord skreślony ołówkiem	!	!
24aLL 24f# 24c\	8ryy	.
24a 24f# 24c\	.	.
24aJJ 24f# 24c\	.	.
=15	=15	=15
8ryy	24gLL 24fn 24B/	<
.	24g 24f 24B/	.
.	24gJJ 24f 24B/	.
24ddLL 24g 24f\	8ryy	[[
24dd 24g 24f\	.	.
24ddJJ 24g 24f\	.	.
8ryy	24bLL 24f 24d/	>
.	24b 24f 24d/	.
.	24bJJ 24f 24d/	.
24aLL 24f 24c\	8ryy	.
24a 24f 24c\	.	.
24aJJ 24f 24c\	.	.
8ryy	24a-XLL 24f 24c/	.
.	24a- 24f 24c/	.
.	24a-JJ 24f 24c/	.
24gLL 24f 24B\	8ryy	]]
24g 24f 24B\	.	.
24gJJ 24f 24B\	.	.
=16	=16	=16
8ryy	24gLL 24f 24B/	<
.	24g 24f 24B/	.
.	24gJJ 24f 24B/	.
24ffLL 24dd 24g\	8ryy	[[
24ff 24dd 24g\	.	.
24ffJJ 24dd 24g\	.	.
8ryy	24ddLL 24b 24f/	>
.	24dd 24b 24f/	.
.	24ddJJ 24b 24f/	.
24cc#XLL 24b-X 24e\	8ryy	.
24cc# 24b- 24e\	.	.
24cc#JJ 24b- 24e\	.	.
8ryy	24ccnLL 24a 24e-X/	.
.	24cc 24a 24e-/	.
.	24ccJJ 24a 24e-/	]]
24bnLL 24g 24d\	8ryy	.
24b 24g 24d\	.	.
24bJJ 24g 24d\	.	.
=17	=17	=17
8ryy	24bLL 24g 24d/	.
.	24b 24g 24d/	.
.	24bJJ 24g 24d/	.
24aaLL 24ff 24dd\	8ryy	>
24aa 24ff 24dd\	.	.
24aaJJ 24ff 24dd\	.	.
8ryy	24ff#XLL 24ee-X 24cc/	.
.	24ff# 24ee- 24cc/	.
.	24ff#JJ 24ee- 24cc/	.
!!LO:LB:g=original
24ggLL 24dd 24b\	8ryy	]]
24gg 24dd 24b\	.	.
24ggJJ 24dd 24b\	.	.
8ryy	24eenLL 24dd-X 24b-X/	.
.	24ee 24dd- 24b-/	.
.	24eeJJ 24dd- 24b-/	.
24ffnLL 24cc 24a\	8ryy	.
24ff 24cc 24a\	.	.
24ffJJ 24cc 24a\	.	.
=18	=18	=18
!	!LO:TX:t=P:problem=w źródle akord skreślony ołówkiem	!
8ryy	24dd#XLL 24b 24a/	>
.	24dd# 24b 24a/	.
.	24dd#JJ 24b 24a/	.
24eeLL 24b 24g#X\	8ryy	.
24ee 24b 24g#\	.	.
24eeJJ 24b 24g#\	.	.
8ryy	24cc#XLL 24a 24gn/	.
.	24cc# 24a 24g/	.
.	24cc#JJ 24a 24g/	.
24ddLL 24a 24f#X\	8ryy	.
24dd 24a 24f#\	.	.
24ddJJ 24a 24f#\	.	.
8ryy	24aLL 24f#X 24d/	.
.	24a 24f# 24d/	.
.	24aJJ 24f# 24d/	.
24bLL 24g# 24fn 24d\	8ryy	.
24b 24g# 24f 24d\	.	.
24bJJ 24g# 24f 24d\	.	.
=19	=19	=19
8ryy	24gLL 24e 24c/	p
.	24g 24e 24c/	.
.	24gJJ 24e 24c/	.
24ccLL 24g 24e\	8ryy	.
24cc 24g 24e\	.	.
24ccJJ 24g 24e\	.	.
8ryy	24gLL 24e 24c/	.
.	24g 24e 24c/	.
.	24gJJ 24e 24c/	.
24bLL 24f 24d\	8ryy	.
24b 24f 24d\	.	.
24bJJ 24f 24d\	.	.
8ryy	24aLL 24f 24c/	.
.	24a 24f 24c/	.
.	24aJJ 24f 24c/	.
24gLL 24f 24B\	8ryy	.
24g 24f 24B\	.	.
24gJJ 24f 24B\	.	.
=20	=20	=20
8ryy	24gLL 24e 24c/	<
.	24g 24e 24c/	.
.	24gJJ 24e 24c/	.
24ccLL 24g 24e\	8ryy	.
24cc 24g 24e\	.	.
24ccJJ 24g 24e\	.	.
8ryy	24eeLL 24cc 24g/	.
.	24ee 24cc 24g/	.
.	24eeJJ 24cc 24g/	.
24ggLL 24cc 24b\	8ryy	[ >
24gg 24cc 24b\	.	.
24ggJJ 24cc 24b\	.	.
8ryy	24ffLL 24cc 24a/	.
.	24ff 24cc 24a/	.
.	24ffJJ 24cc 24a/	.
24eeLL 24cc 24g\	8ryy	.
24ee 24cc 24g\	.	.
24eeJJ 24cc 24g\	.	]]
!!LO:LB:g=original
=21	=21	=21
8ryy	24ddLL 24cc 24f#X/	.
.	24dd 24cc 24f#/	.
.	24ddJJ 24cc 24f#/	.
24ee-XLL 24cc 24g\	8ryy	.
24ee- 24cc 24g\	.	.
24ee-JJ 24cc 24g\	.	.
8ryy	24ddLL 24cc 24f#/	.
.	24dd 24cc 24f#/	.
.	24ddJJ 24cc 24f#/	.
24aaLL 24ee- 24cc\	8ryy	>
24aa 24ee- 24cc\	.	.
24aaJJ 24ee- 24cc\	.	.
8ryy	24ee-XLL 24cc 24g/	.
.	24ee- 24cc 24g/	.
.	24ee-JJ 24cc 24g/	.
24ddLL 24cc 24f\	8ryy	]
24dd 24cc 24f\	.	.
24ddJJ 24cc 24f\	.	.
=22	=22	=22
8ryy	24ddLL 24b 24fn/	.
.	24dd 24b 24f/	.
.	24ddJJ 24b 24f/	.
24eeLL 24b 24g\	8ryy	.
24ee 24b 24g\	.	.
24eeJJ 24b 24g\	.	.
8ryy	24ddLL 24b 24f/	.
.	24dd 24b 24f/	.
.	24ddJJ 24b 24f/	.
24ffLL 24b 24a\	8ryy	>
24ff 24b 24a\	.	.
24ffJJ 24b 24a\	.	.
8ryy	24eeLL 24b 24g/	.
.	24ee 24b 24g/	.
.	24eeJJ 24b 24g/	.
24ddLL 24b 24f\	8ryy	]
24dd 24b 24f\	.	.
24ddJJ 24b 24f\	.	.
=23	=23	=23
8ryy	24gLL 24e 24c/	.
.	24g 24e 24c/	.
.	24gJJ 24e 24c/	.
24ccLL 24g 24e\	8ryy	.
24cc 24g 24e\	.	.
24ccJJ 24g 24e\	.	.
8ryy	24gLL 24e 24c/	.
.	24g 24e 24c/	.
.	24gJJ 24e 24c/	.
24bLL 24f 24d\	8ryy	.
24b 24f 24d\	.	.
24bJJ 24f 24d\	.	.
8ryy	24aLL 24f 24c/	.
.	24a 24f 24c/	.
.	24aJJ 24f 24c/	.
24gLL 24f 24B\	8ryy	.
24g 24f 24B\	.	.
24gJJ 24f 24B\	.	.
=24	=24	=24
8ryy	24gLL 24e 24c/	<
.	24g 24e 24c/	.
.	24gJJ 24e 24c/	.
24ccLL 24g 24e\	8ryy	.
24cc 24g 24e\	.	.
24ccJJ 24g 24e\	.	.
8ryy	24eeLL 24cc 24g/	.
.	24ee 24cc 24g/	.
.	24eeJJ 24cc 24g/	[[
!!LO:LB:g=original
24ggLL 24cc#X 24b-X\	8ryy	[>
24gg 24cc# 24b-\	.	.
24ggJJ 24cc# 24b-\	.	.
8ryy	24ff#XLL 24dd 24a/	.
.	24ff# 24dd 24a/	.
.	24ff#JJ 24dd 24a/	.
24ffnLL 24bn 24a-X\	8ryy	.
24ff 24b 24a-\	.	.
24ffJJ 24b 24a-\	.	]
=25	=25	=25
8ryy	24eeLL 24cc 24g/	.
.	24ee 24cc 24g/	.
.	24eeJJ 24cc 24g/	.
24dd#XLL 24a 24f#X\	8ryy	.
24dd# 24a 24f#\	.	.
24dd#JJ 24a 24f#\	.	.
8ryy	24eeLL 24cc 24g/	.
.	24ee 24cc 24g/	.
.	24eeJJ 24cc 24g/	.
24ffLL 24b 24a\	8ryy	.
24ff 24b 24a\	.	.
24ffJJ 24b 24a\	.	.
8ryy	24aLL 24f#X 24c#X/	.
.	24a 24f# 24c#/	.
.	24aJJ 24f# 24c#/	.
24bLL 24f# 24d\	8ryy	.
24b 24f# 24d\	.	.
24bJJ 24f# 24d\	.	.
=26	=26	=26
8ryy	24gLL 24e 24c/	.
.	24g 24e 24c/	.
.	24gJJ 24e 24c/	.
!	!	!LO:DY:a
24ccLL 24g 24e\	8ryy	p
24cc 24g 24e\	.	.
24ccJJ 24g 24e\	.	.
8ryy	24f#XLL 24d#X 24c/	.
.	24f# 24d# 24c/	.
.	24f#JJ 24d# 24c/	.
24ccLL 24f#X 24d#X\	8ryy	.
24cc 24f# 24d#\	.	.
24ccJJ 24f# 24d#\	.	.
8ryy	24gLL 24e 24c/	.
.	24g 24e 24c/	.
.	24gJJ 24e 24c/	.
24ccLL 24g 24e\	8ryy	.
24cc 24g 24e\	.	.
24ccJJ 24g 24e\	.	.
!!LO:LB:g=original
=27||	=27||	=27||
*clefF4	*clefF4	*
*k[b-e-a-d-]	*k[b-e-a-d-]	*
8ryy	24E-LL 24AA-/	<
.	24E- 24AA-/	.
.	24E-JJ 24AA-/	.
24cLL 24E-\	8ryy	.
24c 24E-\	.	.
24cJJ 24E-\	.	.
8ryy	24a-LL 24c/	.
.	24a- 24c/	.
.	24a-JJ 24c/	.
24gLL 24d-\	8ryy	[ >
24g 24d-\	.	.
24gJJ 24d-\	.	.
8ryy	24d-LL 24G/	.
.	24d- 24G/	.
.	24d-JJ 24G/	.
24GLL 24F-X\	8ryy	.
24G 24F-\	.	.
24GJJ 24F-\	.	]
=28	=28	=28
8ryy	24E-LL 24AA-/	.
.	24E- 24AA-/	.
.	24E-JJ 24AA-/	.
24cLL 24E-\	8ryy	.
24c 24E-\	.	.
24cJJ 24E-\	.	.
8ryy	24a-LL 24c/	.
.	24a- 24c/	.
.	24a-JJ 24c/	.
24gLL 24d-\	8ryy	.
24g 24d-\	.	.
24gJJ 24d-\	.	.
8ryy	24d-LL 24G/	.
.	24d- 24G/	.
.	24d-JJ 24G/	.
24GLL 24F-X\	8ryy	.
24G 24F-\	.	.
24GJJ 24F-\	.	.
=29	=29	=29
8ryy	24E-LL 24AA-/	.
.	24E- 24AA-/	.
.	24E-JJ 24AA-/	.
*clefG2	*clefG2	*
24a-LL 24e- 24c\	8ryy	.
24a- 24e- 24c\	.	.
24a-JJ 24e- 24c\	.	.
8ryy	24a-LL 24d- 24Bn/	.
.	24a- 24d- 24B/	.
.	24a-JJ 24d- 24B/	.
24a-LL 24e- 24c\	8ryy	.
24a- 24e- 24c\	.	.
24a-JJ 24e- 24c\	.	.
8ryy	24a-LL 24f 24d-/	.
.	24a- 24f 24d-/	.
.	24a-JJ 24f 24d-/	.
24a-LL 24e- 24c\	8ryy	.
24a- 24e- 24c\	.	.
24a-JJ 24e- 24c\	.	.
*clefF4	*clefF4	*
!!LO:LB:g=original
=30	=30	=30
8ryy	24CLL 24FF/	.
.	24C 24FF/	.
.	24CJJ 24FF/	.
*clefG2	*clefG2	*
24anLL 24e- 24c\	8ryy	.
24a 24e- 24c\	.	.
24aJJ 24e- 24c\	.	.
!	!LO:TX:t=P:problem=dopisane ołówkiem "a"	!
8ryy	24anLL 24f 24d-/	.
.	24a 24f 24d-/	.
.	24aJJ 24f 24d-/	.
24aLL 24g-X 24e-\	8ryy	.
24a 24g- 24e-\	.	.
24aJJ 24g- 24e-\	.	.
8ryy	24aLL 24f 24d-/	.
.	24a 24f 24d-/	.
.	24aJJ 24f 24d-/	.
24aLL 24e- 24c\	8ryy	.
24a 24e- 24c\	.	.
24aJJ 24e- 24c\	.	.
*clefF4	*clefF4	*
=31	=31	=31
!	!	!LO:HP:a
8ryy	24FLL 24BB-/	<
.	24F 24BB-/	.
.	24FJJ 24BB-/	.
24d-LL 24F\	8ryy	.
24d- 24F\	.	.
24d-JJ 24F\	.	.
*clefG2	*clefG2	*
8ryy	24b-LL 24d-/	.
.	24b- 24d-/	.
.	24b-JJ 24d-/	.
24anLL 24e-\	8ryy	.
24a 24e-\	.	.
24aJJ 24e-\	.	.
*clefF4	*clefF4	*
!	!	!LO:HP:a
8ryy	24e-LL 24An/	[ >
.	24e- 24A/	.
.	24e-JJ 24A/	.
24A-LL 24G-X\	8ryy	.
24A- 24G-\	.	.
24A-JJ 24G-\	.	.
=32	=32	=32
8ryy	24FLL 24BB-/	.
.	24F 24BB-/	.
.	24FJJ 24BB-/	.
24d-LL 24F\	8ryy	]
24d- 24F\	.	.
24d-JJ 24F\	.	.
*clefG2	*clefG2	*
8ryy	24b-LL 24d-/	.
.	24b- 24d-/	.
.	24b-JJ 24d-/	.
24a-LL 24dn\	8ryy	.
24a- 24d\	.	.
24a-JJ 24d\	.	.
*clefF4	*clefF4	*
8ryy	24dnLL 24A-/	.
.	24d 24A-/	.
.	24dJJ 24A-/	.
24A-LL 24F\	8ryy	.
24A- 24F\	.	.
24A-JJ 24F\	.	.
!!LO:LB:g=original
=33	=33	=33
8ryy	24E-LL 24EE-/	.
.	24E- 24EE-/	.
.	24E-JJ 24EE-/	.
24e-LL 24c 24A-\	8ryy	.
24e- 24c 24A-\	.	.
24e-JJ 24c 24A-\	.	.
8ryy	24dnLL 24Bn 24A-/	.
.	24d 24B 24A-/	.
.	24dJJ 24B 24A-/	.
24e-LL 24c 24A-\	8ryy	.
24e- 24c 24A-\	.	.
24e-JJ 24c 24A-\	.	.
8ryy	24f-XLL 24d-X 24A-/	.
.	24f- 24d- 24A-/	.
.	24f-JJ 24d- 24A-/	.
24e-LL 24c 24A-\	8ryy	.
24e- 24c 24A-\	.	.
24e-JJ 24c 24A-\	.	.
=34	=34	=34
8ryy	24E-LL 24EE-/	.
.	24E- 24EE-/	.
.	24E-JJ 24EE-/	.
24GLL 24D-\	8ryy	.
24G 24D-\	.	.
24GJJ 24D-\	.	.
8ryy	24GLL 24E-/	.
.	24G 24E-/	.
.	24GJJ 24E-/	.
24GLL 24F-X\	8ryy	.
24G 24F-\	.	.
24GJJ 24F-\	.	.
8ryy	24GLL 24E-/	.
.	24G 24E-/	.
.	24GJJ 24E-/	.
24GLL 24D-\	8ryy	.
24G 24D-\	.	.
24GJJ 24D-\	.	.
=35	=35	=35
8ryy	24CLL 24FF/	.
.	24C 24FF/	.
.	24CJJ 24FF/	.
24cLL 24A-\	8ryy	.
24c 24A-\	.	.
24cJJ 24A-\	.	.
*clefG2	*clefG2	*
!	!	!LO:HP:a
8ryy	24a-LL 24c/	<
.	24a- 24c/	.
.	24a-JJ 24c/	.
24gLL 24d-\	8ryy	.
24g 24d-\	.	.
24gJJ 24d-\	.	.
*clefF4	*clefF4	*
8ryy	24d-LL 24G/	.
.	24d- 24G/	.
.	24d-JJ 24G/	.
24GLL 24En\	8ryy	.
24G 24E\	.	.
24GJJ 24E\	.	.
!!LO:LB:g=original
=36	=36	=36
8ryy	24CLL 24FF/	.
.	24C 24FF/	.
.	24CJJ 24FF/	.
24cLL 24A-\	8ryy	.
24c 24A-\	.	.
24cJJ 24A-\	.	.
*clefG2	*clefG2	*
8ryy	24a-LL 24c/	.
.	24a- 24c/	.
.	24a-JJ 24c/	.
24enLL 24B-\	8ryy	.
24e 24B-\	.	.
24eJJ 24B-\	.	.
*clefF4	*clefF4	*
8ryy	24B-LL 24En/	.
.	24B- 24E/	.
.	24B-JJ 24E/	.
24EnyLL 24D-\	8ryy	.
24E 24D-\	.	.
24EJJ 24D-\	.	.
=37	=37	=37
8ryy	24AA-LL 24DD-/	.
.	24AA- 24DD-/	.
.	24AA-JJ 24DD-/	.
24A-LL 24F\	8ryy	<
24A- 24F\	.	.
24A-JJ 24F\	.	.
8ryy	24fLL 24A-/	.
.	24f 24A-/	.
.	24fJJ 24A-/	.
24enLL 24B-\	8ryy	.
24e 24B-\	.	.
24eJJ 24B-\	.	.
!	!LO:TX:t=P:problem=♮ dopisany ołówkiem	!
8ryy	24B-LL 24En/	.
.	24B- 24E/	.
.	24B-JJ 24E/	.
!LO:TX:a:Bi:t=poco a poco:dur=5e:ext=s:problem=text with extention lines	!	!
24EnyLL 24D-\	8ryy	.
24E 24D-\	.	.
24EJJ 24D-\	.	.
=38	=38	=38
8ryy	24AA-LL 24DD-/	.
.	24AA- 24DD-/	.
.	24AA-JJ 24DD-/	.
24A-LL 24F\	8ryy	.
24A- 24F\	.	.
24A-JJ 24F\	.	.
8ryy	24fLL 24A-/	.
.	24f 24A-/	.
.	24fJJ 24A-/	.
24cLL 24G-X\	8ryy	.
24c 24G-\	.	.
24cJJ 24G-\	.	.
8ryy	24GLL 24C/	.
.	24G 24C/	.
.	24GJJ 24C/	.
24CLL 24AAn\	8ryy	.
24C 24AA\	.	.
24CJJ 24AA\	.	.
!!LO:PB:g=original
=39	=39	=39
!	!	!LO:DY:a
8ryy	24FFLL 24BBB-/	f
.	24FF 24BBB-/	.
.	24FFJJ 24BBB-/	.
24FLL 24D-\	8ryy	.
24F 24D-\	.	.
24FJJ 24D-\	.	.
8ryy	24d-LL 24F/	.
.	24d- 24F/	.
.	24d-JJ 24F/	.
24cLL 24En\	8ryy	.
24c 24E\	.	.
24cJJ 24E\	.	.
8ryy	24EnLL 24C/	.
.	24E 24C/	.
.	24EJJ 24C/	.
24CLL 24GG\	8ryy	.
24C 24GG\	.	.
24CJJ 24GG\	.	.
=40	=40	=40
!	!	!LO:HP:a
8ryy	24BB-LL 24DD-/	<
.	24BB- 24DD-/	.
.	24BB-JJ 24DD-/	.
24FLL 24D-\	8ryy	.
24F 24D-\	.	.
24FJJ 24D-\	.	.
8ryy	24B-LL 24F/	.
.	24B- 24F/	.
.	24B-JJ 24F/	.
!	!	!LO:HP:a
24fLL 24c-X\	8ryy	[ >
24f 24c-\	.	.
24fJJ 24c-\	.	.
8ryy	24c-XLL 24F/	.
.	24c- 24F/	.
.	24c-JJ 24F/	.
24FLL 24C-X\	8ryy	.
24F 24C-\	.	.
24FJJ 24C-\	.	]
=41	=41	=41
!	!	!LO:DY:a:Bi:t=%sorte
8ryy	24E-LL 24EE-/	f
.	24E- 24EE-/	.
.	24E-JJ 24EE-/	.
24e-LL 24cn 24A-\	8ryy	.
24e- 24c 24A-\	.	.
24e-JJ 24c 24A-\	.	.
8ryy	24cLL 24A- 24E-/	.
.	24c 24A- 24E-/	.
.	24cJJ 24A- 24E-/	.
24A-LL 24E- 24Cn\	8ryy	.
24A- 24E- 24C\	.	.
24A-JJ 24E- 24C\	.	.
8ryy	24A-LL 24F-X 24D-/	.
.	24A- 24F- 24D-/	.
.	24A-JJ 24F- 24D-/	.
24A-LL 24Fn 24Dn\	8ryy	.
24A- 24F 24D\	.	.
24A-JJ 24F 24D\	.	.
!!LO:LB:g=original
=42	=42	=42
8ryy	24E-LL 24EE-/	.
.	24E- 24EE-/	.
.	24E-JJ 24EE-/	.
24cLL 24G 24E-\	8ryy	.
24c 24G 24E-\	.	.
24cJJ 24G 24E-\	.	.
8ryy	24cLL 24G 24F-X/	.
.	24c 24G 24F-/	.
.	24cJJ 24G 24F-/	.
24cLL 24G 24E-\	8ryy	.
24c 24G 24E-\	.	.
24cJJ 24G 24E-\	.	.
8ryy	24cLL 24G 24Dn/	.
.	24c 24G 24D/	.
.	24cJJ 24G 24D/	.
24B-LL 24G 24D-X\	8ryy	.
24B- 24G 24D-\	.	.
24B-JJ 24G 24D-\	.	.
=43	=43	=43
!	!	!LO:DY:a
8ryy	24CLL 24FF/	p
.	24C 24FF/	.
.	24CJJ 24FF/	.
24cLL 24A-\	8ryy	.
24c 24A-\	.	.
24cJJ 24A-\	.	.
*clefG2	*clefG2	*
8ryy	24a-LL 24c/	.
.	24a- 24c/	.
.	24a-JJ 24c/	.
24gLL 24d-\	8ryy	.
24g 24d-\	.	.
24gJJ 24d-\	.	.
*clefF4	*clefF4	*
8ryy	24d-LL 24G/	.
.	24d- 24G/	.
.	24d-JJ 24G/	.
24GLL 24D-\	8ryy	.
24G 24D-\	.	.
24GJJ 24D-\	.	.
=44	=44	=44
8ryy	24CLL 24FF/	.
.	24C 24FF/	.
.	24CJJ 24FF/	.
24cLL 24A-\	8ryy	.
24c 24A-\	.	.
24cJJ 24A-\	.	.
*clefG2	*clefG2	*
8ryy	24a-LL 24c/	.
.	24a- 24c/	.
.	24a-JJ 24c/	.
!	!	!LO:HP:a
24ccLL 24f#X\	8ryy	<
24cc 24f#\	.	.
24ccJJ 24f#\	.	.
8ryy	24f#XLL 24c/	.
.	24f# 24c/	.
.	24f#JJ 24c/	.
*clefF4	*clefF4	*
24cLL 24F#X\	8ryy	.
24c 24F#\	.	.
24cJJ 24F#\	.	.
!!LO:LB:g=original
=45	=45	=45
8ryy	24DnLL 24GG/	.
.	24D 24GG/	.
.	24DJJ 24GG/	.
24dnLL 24Bn 24G\	8ryy	.
24d 24B 24G\	.	.
24dJJ 24B 24G\	.	.
*clefG2	*clefG2	*
!	!LO:TX:a:Bi:t=cresc_ molto_:problem=dynamics with extention lines	!
!	!	!LO:HP:a:Bi:t=cresc_ molto_:ext=ud
8ryy	24bnLL 24g 24dn/	<
.	24b 24g 24d/	.
.	24bJJ 24g 24d/	.
24ccLL 24f#X\	8ryy	.
24cc 24f#\	.	.
24ccJJ 24f#\	.	.
8ryy	24f#XLL 24c/	.
.	24f# 24c/	.
.	24f#JJ 24c/	.
*clefF4	*clefF4	*
24cLL 24F#X\	8ryy	.
24c 24F#\	.	.
24cJJ 24F#\	.	.
=46	=46	=46
8ryy	24DnLL 24GG/	.
.	24D 24GG/	.
.	24DJJ 24GG/	.
24dnLL 24Bn 24G\	8ryy	.
24d 24B 24G\	.	.
24dJJ 24B 24G\	.	.
*clefG2	*clefG2	*
8ryy	24bnLL 24gn 24dn/	.
.	24b 24g 24d/	.
.	24bJJ 24g 24d/	.
!LO:TX:t=P:problem=w źródle akord skreślony ołówkiem	!	!
24ee-LL 24cc 24f#X\	8ryy	.
24ee- 24cc 24f#\	.	.
24ee-JJ 24cc 24f#\	.	.
8ryy	24ccLL 24f#X 24c/	.
.	24cc 24f# 24c/	.
.	24ccJJ 24f# 24c/	.
*clefF4	*clefF4	*
24e-LL 24c 24F#X\	8ryy	.
24e- 24c 24F#\	.	.
24e-JJ 24c 24F#\	.	.
=47	=47	=47
8ryy	24DnLL 24GG/	.
.	24D 24GG/	.
.	24DJJ 24GG/	.
24dnLL 24Bn\	8ryy	.
24d 24B\	.	.
24dJJ 24B\	.	.
*clefG2	*clefG2	*
8ryy	24bnLL 24g 24dn/	.
.	24b 24g 24d/	.
.	24bJJ 24g 24d/	.
24ff#XLL 24ee- 24cc\	8ryy	.
24ff# 24ee- 24cc\	.	.
24ff#JJ 24ee- 24cc\	.	.
8ryy	24a-LL 24f#X 24c/	.
.	24a- 24f# 24c/	.
.	24a-JJ 24f# 24c/	[
24ff#LL 24ee- 24cc\	8ryy	.
24ff# 24ee- 24cc\	.	.
24ff#JJ 24ee- 24cc\	.	.
!!LO:LB:g=original
=48	=48	=48
8ryy	24cccLL 24ff#X 24cc/	.
.	24ccc 24ff# 24cc/	.
.	24cccJJ 24ff# 24cc/	.
24ee-LL 24cc 24f#X\	8ryy	.
24ee- 24cc 24f#\	.	.
24ee-JJ 24cc 24f#\	.	.
!	!	!LO:DY:b:Bi:t=%sorte
8ryy	24cccLL 24ff# 24cc/	f
.	24ccc 24ff# 24cc/	.
.	24cccJJ 24ff# 24cc/	.
24fff#XLL 24eee- 24ccc\	8ryy	.
24fff# 24eee- 24ccc\	.	.
24fff#JJ 24eee- 24ccc\	.	.
8ryy	24cccLL 24ff# 24cc/	.
.	24ccc 24ff# 24cc/	.
.	24cccJJ 24ff# 24cc/	.
24fff#LL 24eee- 24ccc\	8ryy	.
24fff# 24eee- 24ccc\	.	.
24fff#JJ 24eee- 24ccc\	.	.
=49	=49	=49
8ryy	24gggLL 24bbn 24gg/	.
.	24ggg 24bb 24gg/	.
.	24gggJJ 24bb 24gg/	.
24dddnLL 24bbn 24gg\	8ryy	.
24ddd 24bb 24gg\	.	.
24dddJJ 24bb 24gg\	.	.
8ryy	24bbLL 24gg 24ddn/	>
.	24bb 24gg 24dd/	.
.	24bbJJ 24gg 24dd/	.
24ggLL 24ddn 24bn\	8ryy	.
24gg 24dd 24b\	.	.
24ggJJ 24dd 24b\	.	.
8ryy	24ddLL 24bn 24g/	.
.	24dd 24b 24g/	.
.	24ddJJ 24b 24g/	.
24bLL 24g 24dn\	8ryy	.
24b 24g 24d\	.	.
24bJJ 24g 24d\	.	.
=50	=50	=50
8ryy	24gLL 24dn 24Bn/	>
.	24g 24d 24B/	.
.	24gJJ 24d 24B/	.
24gLL 24dn 24Bn\	8ryy	.
24g 24d 24B\	.	.
24gJJ 24d 24B\	.	.
8ryy	24gLL 24en 24B/	.
.	24g 24e 24B/	.
.	24gJJ 24e 24B/	.
24gLL 24f 24B\	8ryy	.
24g 24f 24B\	.	.
24gJJ 24f 24B\	.	.
8ryy	24gLL 24e 24B/	.
.	24g 24e 24B/	.
.	24gJJ 24e 24B/	.
24gLL 24d 24B\	8ryy	.
24g 24d 24B\	.	.
24gJJ 24d 24B\	.	]]
!!LO:LB:g=original
=51||	=51||	=51||
*k[]	*k[]	*
!	!	!LO:DY:a:Bi:t=%siano.
8ryy	24gLL 24e 24c/	p
.	24g 24e 24c/	.
.	24gJJ 24e 24c/	.
24ccLL 24g 24e\	8ryy	.
24cc 24g 24e\	.	.
24ccJJ 24g 24e\	.	.
8ryy	24gLL 24e 24c/	.
.	24g 24e 24c/	.
.	24gJJ 24e 24c/	.
24bLL 24f 24d\	8ryy	.
24b 24f 24d\	.	.
24bJJ 24f 24d\	.	.
8ryy	24aLL 24f 24c/	.
.	24a 24f 24c/	.
.	24aJJ 24f 24c/	.
24gLL 24f 24B\	8ryy	.
24g 24f 24B\	.	.
24gJJ 24f 24B\	.	.
=52	=52	=52
8ryy	24gLL 24e 24c/	<
.	24g 24e 24c/	.
.	24gJJ 24e 24c/	.
24ccLL 24g 24e\	8ryy	.
24cc 24g 24e\	.	.
24ccJJ 24g 24e\	.	.
8ryy	24eeLL 24cc 24g/	.
.	24ee 24cc 24g/	.
.	24eeJJ 24cc 24g/	.
24ggLL 24cc 24b\	8ryy	[ >
24gg 24cc 24b\	.	.
24ggJJ 24cc 24b\	.	.
8ryy	24ffLL 24cc 24a/	.
.	24ff 24cc 24a/	.
.	24ffJJ 24cc 24a/	.
24eeLL 24cc 24g\	8ryy	.
24ee 24cc 24g\	.	.
24eeJJ 24cc 24g\	.	]]
=53	=53	=53
8ryy	24ddLL 24cc 24f#X/	.
.	24dd 24cc 24f#/	.
.	24ddJJ 24cc 24f#/	.
24ee-XLL 24cc 24g\	8ryy	.
24ee- 24cc 24g\	.	.
24ee-JJ 24cc 24g\	.	.
8ryy	24ddLL 24cc 24f#/	.
.	24dd 24cc 24f#/	.
.	24ddJJ 24cc 24f#/	.
24aaLL 24ee- 24cc\	8ryy	>
24aa 24ee- 24cc\	.	.
24aaJJ 24ee- 24cc\	.	.
8ryy	24ee-XLL 24cc 24g/	.
.	24ee- 24cc 24g/	.
.	24ee-JJ 24cc 24g/	.
24ddLL 24cc 24f\	8ryy	]]
24dd 24cc 24f\	.	.
24ddJJ 24cc 24f\	.	.
!!LO:LB:g=original
=54	=54	=54
8ryy	24ddLL 24b 24fn/	.
.	24dd 24b 24f/	.
.	24ddJJ 24b 24f/	.
24eeLL 24b 24g\	8ryy	.
24ee 24b 24g\	.	.
24eeJJ 24b 24g\	.	.
8ryy	24ddLL 24b 24f/	.
.	24dd 24b 24f/	.
.	24ddJJ 24b 24f/	.
24ffLL 24b 24a\	8ryy	>
24ff 24b 24a\	.	.
24ffJJ 24b 24a\	.	.
8ryy	24eeLL 24b 24g/	.
.	24ee 24b 24g/	.
.	24eeJJ 24b 24g/	.
24ddLL 24b 24f\	8ryy	]
24dd 24b 24f\	.	.
24ddJJ 24b 24f\	.	.
=55	=55	=55
8ryy	24gLL 24e 24c/	.
.	24g 24e 24c/	.
.	24gJJ 24e 24c/	.
24ccLL 24g 24e\	8ryy	.
24cc 24g 24e\	.	.
24ccJJ 24g 24e\	.	.
8ryy	24gLL 24e 24c/	.
.	24g 24e 24c/	.
.	24gJJ 24e 24c/	.
24bLL 24f 24d\	8ryy	.
24b 24f 24d\	.	.
24bJJ 24f 24d\	.	.
8ryy	24aLL 24f 24c/	.
.	24a 24f 24c/	.
.	24aJJ 24f 24c/	.
24gLL 24f 24B\	8ryy	.
24g 24f 24B\	.	.
24gJJ 24f 24B\	.	.
=56	=56	=56
8ryy	24gLL 24e 24c/	<
.	24g 24e 24c/	.
.	24gJJ 24e 24c/	.
24ccLL 24g 24e\	8ryy	.
24cc 24g 24e\	.	.
24ccJJ 24g 24e\	.	.
8ryy	24eeLL 24cc 24g/	.
.	24ee 24cc 24g/	.
.	24eeJJ 24cc 24g/	.
24ggLL 24cc#X 24b-X\	8ryy	[ >
24gg 24cc# 24b-\	.	.
24ggJJ 24cc# 24b-\	.	.
8ryy	24ff#XLL 24dd 24a/	.
.	24ff# 24dd 24a/	.
.	24ff#JJ 24dd 24a/	.
24ffnLL 24bn 24a-X\	8ryy	]]
24ff 24b 24a-\	.	.
24ffJJ 24b 24a-\	.	.
!!LO:LB:g=original
=57	=57	=57
8ryy	24eeLL 24cc 24g/	.
.	24ee 24cc 24g/	.
.	24eeJJ 24cc 24g/	.
24dd#XLL 24a 24f#X\	8ryy	.
24dd# 24a 24f#\	.	.
24dd#JJ 24a 24f#\	.	.
8ryy	24eeLL 24cc 24g/	.
.	24ee 24cc 24g/	.
.	24eeJJ 24cc 24g/	.
24ffnLL 24b 24a\	8ryy	.
24ff 24b 24a\	.	.
24ffJJ 24b 24a\	.	.
8ryy	24aLL 24fn 24c#X/	.
.	24a 24f 24c#/	.
.	24aJJ 24f 24c#/	.
24bLL 24fny 24d\	8ryy	.
24b 24f 24d\	.	.
24bJJ 24f 24d\	.	.
=58	=58	=58
!	!	!LO:HP:a
8ryy	24gLL 24e 24c/	<
.	24g 24e 24c/	.
.	24gJJ 24e 24c/	.
!	!	!LO:HP:a
24ccLL 24g 24e\	8ryy	[ >
24cc 24g 24e\	.	.
24ccJJ 24g 24e\	.	.
8ryy	24f#XLL 24d#X 24c/	]
.	24f# 24d# 24c/	.
.	24f#JJ 24d# 24c/	.
24gLL 24e 24c\	8ryy	.
24g 24e 24c\	.	.
24gJJ 24e 24c\	.	.
8ryy	24a-XLL 24fn 24c/	.
.	24a- 24f 24c/	.
.	24a-JJ 24f 24c/	.
24gLL 24e 24c\	8ryy	.
24g 24e 24c\	.	.
24gJJ 24e 24c\	.	.
=59	=59	=59
!	!	!LO:HP:a
8ryy	24gLL 24f 24B/	<
.	24g 24f 24B/	.
.	24gJJ 24f 24B/	.
24ddLL 24g 24f\	8ryy	[
24dd 24g 24f\	.	.
24ddJJ 24g 24f\	.	.
!	!	!LO:HP:a
8ryy	24f#XLL 24B/	>
.	24f# 24B/	.
.	24f#JJ 24B/	.
24gLL 24fn 24B\	8ryy	]
24g 24f 24B\	.	.
24gJJ 24f 24B\	.	.
8ryy	24a-XLL 24fn 24B/	.
.	24a- 24f 24B/	.
.	24a-JJ 24f 24B/	.
24gLL 24f 24B\	8ryy	.
24g 24f 24B\	.	.
24gJJ 24f 24B\	.	.
!!LO:LB:g=original
=60	=60	=60
8ryy	24gLL 24e 24c/	<
.	24g 24e 24c/	.
.	24gJJ 24e 24c/	.
24ccLL 24g 24e\	8ryy	.
24cc 24g 24e\	.	.
24ccJJ 24g 24e\	.	.
8ryy	24eeLL 24cc 24g/	.
.	24ee 24cc 24g/	.
.	24eeJJ 24cc 24g/	.
24ggLL 24cc#X 24b-X\	8ryy	[ >
24gg 24cc# 24b-\	.	.
24ggJJ 24cc# 24b-\	.	.
8ryy	24ff#XLL 24dd 24a/	.
.	24ff# 24dd 24a/	.
.	24ff#JJ 24dd 24a/	.
24ffnLL 24bn 24a-X\	8ryy	]]
24ff 24b 24a-\	.	.
24ffJJ 24b 24a-\	.	.
=61	=61	=61
8ryy	24eeLL 24cc 24g/	.
.	24ee 24cc 24g/	.
.	24eeJJ 24cc 24g/	.
24dd#XLL 24a 24f#X\	8ryy	.
24dd# 24a 24f#\	.	.
24dd#JJ 24a 24f#\	.	.
8ryy	24eeLL 24cc 24g/	.
.	24ee 24cc 24g/	.
.	24eeJJ 24cc 24g/	.
24ffnLL 24b 24a\	8ryy	.
24ff 24b 24a\	.	.
24ffJJ 24b 24a\	.	.
8ryy	24aLL 24fn 24c#X/	.
.	24a 24f 24c#/	.
.	24aJJ 24f 24c#/	.
24bLL 24fny 24d/	8ryy	.
24b 24f 24d/	.	.
24bJJ 24f 24d/	.	.
=62	=62	=62
!	!	!LO:HP:a
8ryy	24gLL 24e 24c/	<
.	24g 24e 24c/	.
.	24gJJ 24e 24c/	.
24ccLL 24g 24e\	8ryy	[
24cc 24g 24e\	.	.
!	!	!LO:HP:a
24ccJJ 24g 24e\	.	>
8ryy	24f#XLL 24d#X 24c/	.
.	24f# 24d# 24c/	.
.	24f#JJ 24d# 24c/	]
24gLL 24e 24c\	8ryy	.
24g 24e 24c\	.	.
24gJJ 24e 24c\	.	.
8ryy	24a-XLL 24e-X 24c/	.
.	24a- 24e- 24c/	.
.	24a-JJ 24e- 24c/	.
24gLL 24en 24c\	8ryy	.
24g 24e 24c\	.	.
24gJJ 24e 24c\	.	.
!!LO:LB:g=original
=63	=63	=63
!	!	!LO:HP:a
8ryy	24gLL 24f 24B/	<
.	24g 24f 24B/	.
.	24gJJ 24f 24B/	.
24ddLL 24g 24f\	8ryy	[
24dd 24g 24f\	.	.
!	!	!LO:HP:a
24ddJJ 24g 24f\	.	>
8ryy	24f#XLL 24f 24B/	.
.	24f#X 24fn 24B/	.
.	24f#XJJ 24fn 24B/	]
24gLL 24fn 24B\	8ryy	.
24g 24f 24B\	.	.
24gJJ 24f 24B\	.	.
8ryy	24a-XLL 24e 24B/	.
.	24a- 24e 24B/	.
.	24a-JJ 24e 24B/	.
24gLL 24f 24Bn\	8ryy	.
24g 24f 24B\	.	.
24gJJ 24f 24B\	.	.
=64	=64	=64
8ryy	24gLL 24e 24c/	.
.	24g 24e 24c/	.
.	24gJJ 24e 24c/	.
24ccLL 24g 24e\	8ryy	.
24cc 24g 24e\	.	.
24ccJJ 24g 24e\	.	.
!	!LO:TX:a:Bi:t=cresc_ molto_:problem=dynamics with extention lines	!
!	!	!LO:HP:a:Bi:t=cresc_ molto_:ext=ud
8ryy	24eeLL 24cc 24g/	<
.	24ee 24cc 24g/	.
.	24eeJJ 24cc 24g/	.
24ggLL 24cc 24b-X\	8ryy	.
24gg 24cc 24b-\	.	.
24ggJJ 24cc 24b-\	.	.
8ryy	24ff#XLL 24cc 24a/	.
.	24ff# 24cc 24a/	.
.	24ff#JJ 24cc 24a/	.
24ggLL 24cc 24b-\	8ryy	.
24gg 24cc 24b-\	.	.
24ggJJ 24cc 24b-\	.	.
=65	=65	=65
8ryy	24ccLL 24a 24f/	.
.	24cc 24a 24f/	.
.	24ccJJ 24a 24f/	.
24ffLL 24cc 24a\	8ryy	.
24ff 24cc 24a\	.	.
24ffJJ 24cc 24a\	.	.
8ryy	24aaLL 24ff 24cc/	.
.	24aa 24ff 24cc/	.
.	24aaJJ 24ff 24cc/	.
24cccLL 24aa 24ff\	8ryy	.
24ccc 24aa 24ff\	.	.
24cccJJ 24aa 24ff\	.	.
8ryy	24cccLL 24gg#X 24ee/	.
.	24ccc 24gg# 24ee/	.
.	24cccJJ 24gg# 24ee/	.
24cccLL 24aa 24ff\	8ryy	[[
24ccc 24aa 24ff\	.	.
24cccJJ 24aa 24ff\	.	.
!!LO:LB:g=original
=66	=66	=66
8ryy	24ff#XLL 24ee-X 24a/	.
.	24ff# 24ee- 24a/	.
.	24ff#JJ 24ee- 24a/	.
!	!	!LO:DY:b:Bi:t=%sorte
24cccLL 24aa 24ee-X\	8ryy	f
24ccc 24aa 24ee-\	.	.
24cccJJ 24aa 24ee-\	.	.
8ryy	24eee-XLL 24ccc 24ff#/	.
.	24eee- 24ccc 24ff#/	.
.	24eee-JJ 24ccc 24ff#/	.
24aaLL 24ff#X 24cc\	8ryy	.
24aa 24ff# 24cc\	.	.
24aaJJ 24ff# 24cc\	.	.
8ryy	24eee-LL 24ccc 24ff#/	.
.	24eee- 24ccc 24ff#/	.
.	24eee-JJ 24ccc 24ff#/	.
24fff#XLL 24eee-y 24aa\	8ryy	.
24fff# 24eee- 24aa\	.	.
24fff#JJ 24eee- 24aa\	.	.
=67	=67	=67
8ryy	24cccLL 24aa 24ee-X/	.
.	24ccc 24aa 24ee-/	.
.	24cccJJ 24aa 24ee-/	.
*8va	*	*
24fff#XLL 24eee-X 24aa\	8ryy	.
24fff# 24eee- 24aa\	.	.
24fff#JJ 24eee- 24aa\	.	.
*	*8va	*
8ryy	24aaaLL 24fff 24ccc/	.
.	24aaa 24fff 24ccc/	.
.	24aaaJJ 24fff 24ccc/	.
24eee-LL 24ccc 24ff#X\	8ryy	.
24eee- 24ccc 24ff#\	.	.
24eee-JJ 24ccc 24ff#\	.	.
8ryy	24aaaLL 24fff 24ccc/	.
.	24aaa 24fff 24ccc/	.
.	24aaaJJ 24fff 24ccc/	.
24ccccLL 24aaa 24eee-\	8ryy	.
24cccc 24aaa 24eee-\	.	.
24ccccJJ 24aaa 24eee-\	.	.
=68	=68	=68
!	!LO:TX:b:Bi:t=con tutta forza	!
8ryy	24eeenLL 24ccc 24gg/	.
.	24eee 24ccc 24gg/	.
.	24eeeJJ 24ccc 24gg/	.
24ccccLL 24ggg 24eee\	8ryy	.
24cccc 24ggg 24eee\	.	.
24ccccJJ 24ggg 24eee\	.	.
*X8va	*	*
8ryy	24gggLL 24eee 24ccc/	.
.	24ggg 24eee 24ccc/	.
.	24gggJJ 24eee 24ccc/	.
*	*X8va	*
!	!LO:TX:a:Bi:t=loco.	!
24eeeLL 24ccc 24gg\	8ryy	.
24eee 24ccc 24gg\	.	.
24eeeJJ 24ccc 24gg\	.	.
8ryy	24cccLL 24gg 24ee/	.
.	24ccc 24gg 24ee/	.
.	24cccJJ 24gg 24ee/	.
24ggLL 24ee 24cc\	8ryy	.
24gg 24ee 24cc\	.	.
24ggJJ 24ee 24cc\	.	.
!!LO:LB:g=original
=69	=69	=69
8ryy	24eeLL 24cc 24g/	.
.	24ee 24cc 24g/	.
.	24eeJJ 24cc 24g/	.
24ccLL 24g 24e\	8ryy	.
24cc 24g 24e\	.	.
24ccJJ 24g 24e\	.	.
8ryy	24gLL 24e 24c/	.
.	24g 24e 24c/	.
.	24gJJ 24e 24c/	.
*clefF4	*clefF4	*
24eLL 24c 24G\	8ryy	.
24e 24c 24G\	.	.
24eJJ 24c 24G\	.	.
8ryy	24cLL 24G 24E/	.
.	24c 24G 24E/	.
.	24cJJ 24G 24E/	.
24GLL 24E 24C\	8ryy	.
24G 24E 24C\	.	.
24GJJ 24E 24C\	.	.
=70	=70	=70
8ryy	24ELL 24C 24GG/	.
.	24E 24C 24GG/	.
.	24EJJ 24C 24GG/	.
24cLL 24G 24E\	8ryy	.
24c 24G 24E\	.	.
24cJJ 24G 24E\	.	.
8ryy	24cLL 24F#X 24D#X/	.
.	24c 24F# 24D#/	.
.	24cJJ 24F# 24D#/	.
24cLL 24G 24E\	8ryy	.
24c 24G 24E\	.	.
24cJJ 24G 24E\	.	.
8ryy	24cLL 24A 24Fn/	.
.	24c 24A 24F/	.
.	24cJJ 24A 24F/	.
24cLL 24G 24E\	8ryy	.
24c 24G 24E\	.	.
24cJJ 24G 24E\	.	.
=71	=71	=71
8ryy	24FLL 24D 24GG/	.
.	24F 24D 24GG/	.
.	24FJJ 24D 24GG/	.
24BLL 24F 24D\	8ryy	.
24B 24F 24D\	.	.
24BJJ 24F 24D\	.	.
8ryy	24BLL 24G 24E/	.
.	24B 24G 24E/	.
.	24BJJ 24G 24E/	.
24BLL 24A-X 24F\	8ryy	.
24B 24A- 24F\	.	.
24BJJ 24A- 24F\	.	.
8ryy	24BLL 24G 24E/	.
.	24B 24G 24E/	.
.	24BJJ 24G 24E/	.
24BLL 24F 24D\	8ryy	.
24B 24F 24D\	.	.
24BJJ 24F 24D\	.	.
!!LO:LB:g=original
=72	=72	=72
8ryy	24GGLL 24CC/	.
.	24GG 24CC/	.
.	24GGJJ 24CC/	.
!	!	!LO:DY:b:rj
24ELL 24GG\	8ryy	ff
24E 24GG\	.	.
24EJJ 24GG\	.	.
8ryy	24cLL 24E/	.
.	24c 24E/	.
.	24cJJ 24E/	.
24BLL 24F\	8ryy	.
24B 24F\	.	.
24BJJ 24F\	.	.
8ryy	24FLL 24BB/	.
.	24F 24BB/	.
.	24FJJ 24BB/	.
24BBLL 24AA-X\	8ryy	.
24BB 24AA-\	.	.
24BBJJ 24AA-\	.	.
=73	=73	=73
8ryy	24GGLL 24CC/	.
.	24GG 24CC/	.
.	24GGJJ 24CC/	.
24ELL 24GG\	8ryy	.
24E 24GG\	.	.
24EJJ 24GG\	.	.
8ryy	24cLL 24E/	.
.	24c 24E/	.
.	24cJJ 24E/	.
24BLL 24F\	8ryy	.
24B 24F\	.	.
24BJJ 24F\	.	.
8ryy	24FLL 24BB/	.
.	24F 24BB/	.
.	24FJJ 24BB/	.
!	!LO:TX:t=P:problem=w źródle skreślony takt	!
24BBLL 24AA-X\	8ryy	.
24BB 24AA-\	.	.
24BBJJ 24AA-\	.	.
!!LO:PB:g=original
=74	=74	=74
8ryy	24GGLL 24CC/	.
.	24GG 24CC/	.
.	24GGJJ 24CC/	.
24cLL 24G 24E\	8ryy	.
24c 24G 24E\	.	.
24cJJ 24G 24E\	.	.
8ryy	24cLL 24F#X 24D#X/	.
.	24c 24F# 24D#/	.
.	24cJJ 24F# 24D#/	.
24cLL 24G 24E\	8ryy	.
24c 24G 24E\	.	.
24cJJ 24G 24E\	.	.
8ryy	24cLL 24A 24Fn/	.
.	24c 24A 24F/	.
.	24cJJ 24A 24F/	.
24cLL 24G 24E\	8ryy	.
24c 24G 24E\	.	.
24cJJ 24G 24E\	.	.
=75	=75	=75
8ryy	24DLL 24GG/	.
.	24D 24GG/	.
.	24DJJ 24GG/	.
24BLL 24F 24D\	8ryy	.
24B 24F 24D\	.	.
24BJJ 24F 24D\	.	.
8ryy	24BLL 24G 24E/	.
.	24B 24G 24E/	.
.	24BJJ 24G 24E/	.
24BLL 24A-X 24F\	8ryy	.
24B 24A- 24F\	.	.
24BJJ 24A- 24F\	.	.
8ryy	24BLL 24G 24E/	.
.	24B 24G 24E/	.
.	24BJJ 24G 24E/	.
24BLL 24F 24D\	8ryy	.
24B 24F 24D\	.	.
24BJJ 24F 24D\	.	.
=76	=76	=76
8ryy	24GGLL 24CC/	.
.	24GG 24CC/	.
.	24GGJJ 24CC/	.
24ELL 24GG\	8ryy	.
24E 24GG\	.	.
24EJJ 24GG\	.	.
8ryy	24cLL 24E/	.
.	24c 24E/	.
.	24cJJ 24E/	.
24BLL 24F\	8ryy	.
24B 24F\	.	.
24BJJ 24F\	.	.
8ryy	24FLL 24D-X/	.
.	24F 24D-/	.
.	24FJJ 24D-/	.
24D-yLL 24AA-X\	8ryy	.
24D- 24AA-\	.	.
24D-JJ 24AA-\	.	.
!!LO:LB:g=original
=77	=77	=77
8ryy	24GGLL 24CC/	.
.	24GG 24CC/	.
.	24GGJJ 24CC/	.
24ELL 24GG\	8ryy	.
24E 24GG\	.	.
24EJJ 24GG\	.	.
8ryy	24cLL 24E/	.
.	24c 24E/	.
.	24cJJ 24E/	.
24BLL 24F\	8ryy	.
24B 24F\	.	.
24BJJ 24F\	.	.
8ryy	24FLL 24D-X/	.
.	24F 24D-/	.
.	24FJJ 24D-/	.
24D-yLL 24AA-X\	8ryy	.
24D- 24AA-\	.	.
24D-JJ 24AA-\	.	.
=78	=78	=78
8ryy	24GGLL 24CC/	.
.	24GG 24CC/	.
.	24GGJJ 24CC/	.
24cLL 24G 24E\	8ryy	.
24c 24G 24E\	.	.
24cJJ 24G 24E\	.	.
8ryy	24cLL 24F#X 24D#X/	.
.	24c 24F# 24D#/	.
.	24cJJ 24F# 24D#/	.
24cLL 24G 24E\	8ryy	.
24c 24G 24E\	.	.
24cJJ 24G 24E\	.	.
8ryy	24cLL 24A-X 24Fn/	.
.	24c 24A- 24F/	.
.	24cJJ 24A- 24F/	.
24cLL 24G 24E\	8ryy	.
24c 24G 24E\	.	.
24cJJ 24G 24E\	.	.
=79	=79	=79
8ryy	24DLL 24GG/	.
.	24D 24GG/	.
.	24DJJ 24GG/	.
24BLL 24F 24D\	8ryy	.
24B 24F 24D\	.	.
24BJJ 24F 24D\	.	.
8ryy	24BLL 24G 24E/	.
.	24B 24G 24E/	.
.	24BJJ 24G 24E/	.
24BLL 24A-X 24F\	8ryy	.
24B 24A- 24F\	.	.
24BJJ 24A- 24F\	.	.
8ryy	24BLL 24G 24E/	.
.	24B 24G 24E/	.
.	24BJJ 24G 24E/	.
!	!LO:TX:t=P:problem=w źródle skreślony takt	!
24BLL 24F 24D\	8ryy	.
24B 24F 24D\	.	.
24BJJ 24F 24D\	.	.
!!LO:LB:g=original
=80	=80	=80
*clefF4	*clefF4	*
8ryy	24GGLL 24CC/	.
.	24GG 24CC/	.
.	24GGJJ 24CC/	.
24ELL 24GG\	8ryy	.
24E 24GG\	.	.
24EJJ 24GG\	.	.
8ryy	24cLL 24E/	.
.	24c 24E/	.
.	24cJJ 24E/	.
24gLL 24c\	8ryy	.
24g 24c\	.	.
24gJJ 24c\	.	.
8ryy	24cLL 24E/	.
.	24c 24E/	.
.	24cJJ 24E/	.
24gLL 24c\	8ryy	.
24g 24c\	.	.
24gJJ 24c\	.	.
=81	=81	=81
*clefG2	*clefG2	*
8ryy	24ccLL 24g 24e/	.
.	24cc 24g 24e/	.
.	24ccJJ 24g 24e/	.
24eeLL 24cc 24g\	8ryy	.
24ee 24cc 24g\	.	.
24eeJJ 24cc 24g\	.	.
8ryy	24ggLL 24ee 24cc/	.
.	24gg 24ee 24cc/	.
.	24ggJJ 24ee 24cc/	.
24cccLL 24gg 24ee\	8ryy	.
24ccc 24gg 24ee\	.	.
24cccJJ 24gg 24ee\	.	.
8ryy	24eeeLL 24ccc 24gg/	.
.	24eee 24ccc 24gg/	.
.	24eeeJJ 24ccc 24gg/	.
24gggLL 24eee 24ccc\	8ryy	.
24ggg 24eee 24ccc\	.	.
24gggJJ 24eee 24ccc\	.	.
*Xtremolo	*Xtremolo	*
!!LO:LB:g=original
=82	=82	=82
*clefF4	*	*
*	*8va	*
!	!LO:TX:a:i:t=con:rj	!
4r	8cccc 8ggg 8eee\	.
*	*X8va	*
.	8r	.
8r	8r	.
!	!	!LO:DY:b:Bi:t=%s.
8B 8F 8GG\	8gg 8b 8f\	ff
8r	8r	.
8r	8r	.
=83	=83	=83
*2\right	*	*
8qCC 8qCCC/	8qcc 8qe 8qc\	.
!	!LO:TX:b:Bi:t=Fine.	!
!	!	!LO:DY:b:Bi:t=%s&colon;
2.G 2.E 2.C 2.GG\	2.cc 2.e 2.c\	ff
==	==	==
*-	*-	*-
!!title: @{OTL};
!!!RDF**kern: > = above
!!!RDF**kern: < = below
!!!RDF**dynam: < = "cresc", fontstyle= "bold-italic"
!!!RDF**dynam: > = "dim.", fontstyle= "bold-italic"
!!!RDF**dynam: f = "f.", fontstyle= "bold-italic"
!!!RDF**dynam: p = "p.", fontstyle= "bold-italic"
!!!RDF**kern: | = vertical stroke
!!!RDF**kern: N = linked
!!!RDF**kern: i = editorial accidental
!!!EED: Wojciech Jakubiak-Danek
!!!EST: 2021-06-06
!!!URL-scan: http://repozytorium.nifc.pl/skany/pl-wtm-nut--r2042
!!!ONB-nifc:
!!!AIN: 1 empty
!!!ENC: Andrzej Kubiczek
!!!END: 2021-06-03
